svgs/sharp-regular/up-from-line.svg

<svg xmlns="http://www.w3.org/2000/svg" viewBox="0 0 384 512"><!--! Font Awesome Pro 6.6.0 by @fontawesome - https://fontawesome.com License - https://fontawesome.com/license (Commercial License) Copyright 2024 Fonticons, Inc. --><path d="M224 256l0-48 48 0 28.1 0L192 99.9 83.9 208l28.1 0 48 0 0 48 0 80 64 0 0-80zm1.9-190.1L352 192l0 16 0 48-32 0-16 0-32 0 0 48 0 32 0 48-48 0-64 0-48 0 0-48 0-32 0-48-32 0-16 0-32 0 0-48 0-16L158.1 65.9 192 32l33.9 33.9zM24 432l336 0 24 0 0 48-24 0L24 480 0 480l0-48 24 0z"/></svg>

<svg xmlns="http://www.w3.org/2000/svg" viewBox="0 0 384 512"><!--! Font Awesome Pro 6.4.2 by @fontawesome - https://fontawesome.com License - https://fontawesome.com/license (Commercial License) Copyright 2023 Fonticons, Inc. --><path d="M224 256V208h48 28.1L192 99.9 83.9 208H112h48v48 80h64V256zm1.9-190.1L352 192v16 48H320 304 272v48 32 48H224 160 112V336 304 256H80 64 32V208 192L158.1 65.9 192 32l33.9 33.9zM24 432H360h24v48H360 24 0V432H24z"/></svg>
